X:1
T:Janes, LM
T:Janes, LM
T:Wolfgang Amadeus Mozart (1756-1791)
T:Public Domain Courtesy of the Cyber Hymnal™
C:Wolfgang Amadeus Mozart (1756-1791)
Z:Public Domain
Z:Courtesy of the Cyber Hymnal™
%%score ( 1 2 ) ( 3 4 )
L:1/8
M:3/4
K:A
V:1 treble 
V:2 treble 
V:3 bass 
V:4 bass 
V:1
 E2 | (E2 A2) [EG]2 | [EA]4 [EB]2 | c4 (ed) | (c2 B2) [EG]2 | (B2 A2) [=DF]2 | [EB]4 [Ec]2 | %7
 [B,E]4 (GF) | E4 [EB]2 | (B2 d2) [EG]2 | (B2 A2) [Ec]2 | (c2 e2) [^DA]2 x2 | (c2 B2) [Ec]2 | %13
 ([Dd]2 [Ec]2) [EB]2 | e4 (dc) | [EA]4 (cB) | [CA]4 |] %17
V:2
 E2 | E4 x2 | x6 | (E2 AG) F2 | E4 x2 | ^D4 x2 | x6 | x4 ^D2 | x6 | E4 x2 | E4 x2 | E4 x4 | E4 x2 | %13
 x6 | (E2 =G2) F2 | x4 D2 | x4 |] %17
V:3
 [A,,C]2 | [A,C]4 (B,D) | (D2 C2) [E,G,]2 | A,4 [D,A,]2 | (A,2 G,2) [E,B,]2 | [F,B,]4 B,2 | %6
 [G,,B,]4 [A,,A,]2 | [B,,G,]4 [B,,A,]2 | [E,G,]4 [E,G,]2 | (G,2 B,2) [E,D]2 | (D2 C2) A,2 | %11
 A,4 C2 [F,A,]2 | A,2 G,2 [=G,A,]2 | A,4 [D,G,]2 | (A,2 ^A,2) (B,D) | [E,C]4 [E,G,]2 | [A,,A,]4 |] %17
V:4
 x2 | x4 E,2 | A,,4 x2 | (A,2 F,2) x2 | E,4 x2 | x4 (B,,A,,) | x6 | x6 | x6 | E,4 x2 | A,,4 A,2 | %11
 A,2 x6 | E,4 x2 | (F,2 E,2) x2 | C,4 D,2 | x6 | x4 |] %17

